!!!!SEGMENT: pl-kk--kk-i-88--001-009_golabek-jakub--missa-1-dona-nobis.krn
!!!cenid: 17xx:2574
!!!COM: Gołąbek, Jakub
!!!COM-rismID: pe30008748
!!!CDT: 1739-1789/03/30
!!!CNT: Polish
!!!OPR: Missa 1
!!!OTL: Dona nobis
!!!OMV: 009
!!!PDT:
!!!AGN: Sacred; Mass
!!!YEC: Copyright 2022 Narodowy Instytut Fryderyka Chopina (https://polishscores.org)
!!!YEM: License CC-BY-4.0 (https://creativecommons.org/licenses/by/4.0)
!!!SMS-siglum: PL-Kk
!!!SMS-shelfmark: Kk.I.88
!!!SMS-variant:
!!!SMS-altvar:
!!!SMS-shelfwork: 001-009 M
!!!NIFC-rismSourceID: 1001164072
!!!NIFC-rismChildID: 1001155167
!!!NIFC-islandoraID:
!!!URL-pdf-islandora: https://repozytorium.nifc.pl/islandora/object/pl-kk%3A3086/datastream/PDF/view
!!!URL-scan: https://polish.musicsources.pl/pl/lokalizacje/galeria/rekopisy/6148-missa/4 @EN{Scan on Polish Music Sources Website} @PL{Skany w portalu Dziedzictwo Muzyki Polskiej w otwartym dostępie}
!!!IIIF:
!!!ONB-nifc: UWAGA: C - f. 2r-3v; A - f. 10r-11v; T - f. 18r-19v; B - f. 26r-27v; B rip - f. 33r-34r. Proszę uwzględniać B rip. Części Mszy: 1. Kyrie, 2. Christe, 3. Et in terra, 4. Quoniam, 5. Sanctus, 6. Osanna, 7. Benedictus, 8. Agnus Dei, 9. Dona nobis
!!!OMD:
!!!AIN: 1 alto 2 bass 1 canto 1 tenor
!!!key: C
**kern	**text	**dynam	**kern	**text	**dynam	**kern	**text	**dynam	**kern	**text	**kern	**text	**dynam
*part5	*part5	*part5	*part4	*part4	*part4	*part3	*part3	*part3	*part2	*part2	*part1	*part1	*part1
*staff5	*staff5	*	*staff4	*staff4	*	*staff3	*staff3	*	*staff2	*staff2	*staff1	*staff1	*
*I"Baſso E ripieno	*	*	*I"Baſso	*	*	*I"Tenore	*	*	*I"Alto	*	*I"Canto	*	*
*I'B rip	*	*	*I'B	*	*	*I'T	*	*	*I'A	*	*I'S	*	*
*Ibass	*	*	*Ibass	*	*	*Itenor	*	*	*Ialto	*	*Icanto	*	*
*ICvox	*	*	*ICvox	*	*	*ICvox	*	*	*ICvox	*	*ICvox	*	*
*clefF4	*	*	*clefF4	*	*	*clefC4	*	*	*clefC3	*	*clefC1	*	*
*k[]	*	*	*k[]	*	*	*k[]	*	*	*k[]	*	*k[]	*	*
*C:	*	*	*C:	*	*	*C:	*	*	*C:	*	*C:	*	*
*M3/2	*	*	*M3/2	*	*	*M3/2	*	*	*M3/2	*	*M3/2	*	*
=1	=1	=1	=1	=1	=1	=1	=1	=1	=1	=1	=1	=1	=1
*	*	*	*	*	*	*	*	*	*2\right	*	*2\right	*	*
4C\yy	Do-	.	4C/	Do-	.	2.G/	Do-	.	2.e\	Do-	2.cc\	Do-	.
4E\yy	.	.	4E/	.	.	.	.	.	.	.	.	.	.
4G\yy	-na	.	4G\	-na	.	.	.	.	.	.	.	.	.
4E\yy	.	.	4E\	.	.	4G/	-na	.	4e\	-na	4cc\	-na	.
4C\yy	no-	.	4C/	no-	.	4G/	no-	.	4e\	no-	4cc\	no-	.
4E\yy	-bis	.	4E/	-bis	.	4G/	-bis	.	4e\	-bis	4cc\	-bis	.
=2	=2	=2	=2	=2	=2	=2	=2	=2	=2	=2	=2	=2	=2
*	*	*	*2\right	*	*	*	*	*	*	*	*	*	*
2G\yy	pa-	.	2G\	pa-	.	2G/	pa-	.	4e\	pa-	4cc\	pa-	.
.	.	.	.	.	.	.	.	.	4d\	.	4b\	.	.
1Gyy	-cem	.	1G	-cem	.	1G	-cem,	.	1d	-cem	1b	-cem	.
=3	=3	=3	=3	=3	=3	=3	=3	=3	=3	=3	=3	=3	=3
*	*	*	*	*	*	*2\right	*	*	*	*	*	*	*
4G\yy	Do-	.	4G\	Do-	.	2.B\	Do-	.	2.f\	Do-	2.dd\	Do-	.
4D\yy	.	.	4D\	.	.	.	.	.	.	.	.	.	.
4BB/yy	-na	.	4BB/	-na	.	.	.	.	.	.	.	.	.
4D/yy	.	.	4D/	.	.	4B\	-na	.	4f\	-na	4dd\	-na	.
4G\yy	no-	.	4G\	no-	.	4B\	no-	.	4f\	no-	4dd\	no-	.
4F\yy	-bis	.	4F\	-bis	.	4B\	-bis	.	4f\	-bis	4dd\	-bis	.
=4	=4	=4	=4	=4	=4	=4	=4	=4	=4	=4	=4	=4	=4
4E\yy	pa-	.	4E\	pa-	.	2G/	pa-	.	4f\	pa-	4dd\	pa-	.
4D\yy	.	.	4D\	.	.	.	.	.	4e\	.	4cc\	.	.
1Cyy	-cem	.	1C	-cem	.	1G	-cem,	.	1e	-cem	1cc	-cem,	.
=5	=5	=5	=5	=5	=5	=5	=5	=5	=5	=5	=5	=5	=5
4C/yy	do-	.	4C/	do-	.	4c\	do-	.	4g\	Do-	4ee\	do-	.
4C/yy	-na	.	4C/	-na	.	4c\	-na	.	4e\	-na	4cc\	-na	.
4F\yy	no-	.	4F\	no-	.	4c\	no-	.	4a\	no-	4ff\	no-	.
4E\yy	-bis	.	4E\	-bis	.	4c\	-bis	.	4g\	-bis	4ee\	-bis	.
4F\yy	pa-	.	4F\	pa-	.	4B\	pa-	.	4f\	pa-	4dd\	pa-	.
4F#X\yy	.	.	4F#X\	.	.	4c\	.	.	4e\	.	4cc\	.	.
!	!	!	!LO:LB:g=original	!	!	!LO:LB:g=original	!	!	!LO:LB:g=original	!	!LO:LB:g=original	!	!
=6	=6	=6	=6	=6	=6	=6	=6	=6	=6	=6	=6	=6	=6
1Gyy	-cem	.	1G	-cem	.	1G	-cem	.	1d	-cem	1b	-cem	.
2ryy	.	.	2r	.	.	2r	.	.	2r	.	2r	.	.
=7	=7	=7	=7	=7	=7	=7	=7	=7	=7	=7	=7	=7	=7
2.G\yy	Do-	.	2.G\	Do-	.	2.B\	Do-	.	2.g\	Do-	2.dd\	Do-	.
4G\yy	-na	.	4G\	-na	.	4B\	-na	.	4g\	-na	4dd\	-na	.
4G\yy	no-	.	4G\	no-	.	4B\	no-	.	4g\	no-	4dd\	no-	.
4G\yy	-bis	.	4G\	-bis	.	4B\	-bis	.	4g\	-bis	4dd\	-bis	.
=8	=8	=8	=8	=8	=8	=8	=8	=8	=8	=8	=8	=8	=8
4G\yy	pa-	.	4G\	pa-	.	4B\	pa-	.	4g\	pa-	2dd\	pa-	.
4A\yy	.	.	4A\	.	.	4c\	.	.	4f#X\	.	.	.	.
1Ayy	-cem	.	1A	-cem	.	1c	-cem	.	1f#	-cem	1dd	-cem	.
=9	=9	=9	=9	=9	=9	=9	=9	=9	=9	=9	=9	=9	=9
4B\yy	do-	.	4B\	do-	.	(4G/	do-	.	2.fn\	Do-	2.dd\	Do-	.
4G\yy	-na	.	4G\	-na	.	4B/)	.	.	.	.	.	.	.
4B\yy	no-	.	4B\	no-	.	(4G/	-na	.	.	.	.	.	.
4d\yy	-bis	.	4d\	-bis	.	4B/)	.	.	4f\	-na	4dd\	-na	.
4B\yy	pa-	.	4B\	pa-	.	4G/	no-	.	4f\	no-	4dd\	no-	.
4G\yy	.	.	4G\	.	.	4B/	-bis	.	4f\	-bis	4dd\	-bis	.
=10	=10	=10	=10	=10	=10	=10	=10	=10	=10	=10	=10	=10	=10
2c\yy	.	.	2c\	.	.	2G/	pa-	.	4f\	pa-	4dd\	pa-	.
.	.	.	.	.	.	.	.	.	4e\	.	4cc\	.	.
2G\yy	.	.	2G\	.	.	1G	-cem	.	1e	-cem	1cc	-cem	.
2C/yy	-cem	.	2C/	-cem	.	.	.	.	.	.	.	.	.
=11	=11	=11	=11	=11	=11	=11	=11	=11	=11	=11	=11	=11	=11
2.G\yy	Do-	.	2.G\	Do-	.	2.B\	do-	.	2.f\	do-	2.dd\	Do-	.
4G\yy	-na	.	4G\	-na	.	4B\	-na	.	4f\	-na	4dd\	-na	.
4c\yy	no-	.	4c\	no-	.	4G/	no-	.	4e\	no-	4cc\	no-	.
4c\yy	-bis	.	4c\	-bis	.	4G/	-bis	.	4e\	-bis	4cc\	-bis	.
!	!	!	!LO:LB:g=original	!	!	!LO:LB:g=original	!	!	!	!	!LO:LB:g=original	!	!
=12	=12	=12	=12	=12	=12	=12	=12	=12	=12	=12	=12	=12	=12
1.Gyy	pa-	.	1.G	pa-	.	2d\	pa-	.	2d\	pa-	2b\	pa-	.
.	.	.	.	.	.	2c\	.	.	2e\	.	2cc\	.	.
.	.	.	.	.	.	2B\	.	.	2f\	.	2dd\	.	.
!	!	!	!	!	!	!	!	!	!LO:LB:g=original	!	!	!	!
=13	=13	=13	=13	=13	=13	=13	=13	=13	=13	=13	=13	=13	=13
2E\yy	.	.	2E\	.	.	2G/	.	.	2e\	.	2cc\	.	.
2D\yy	.	.	2D\	.	.	2B\	.	.	2f\	.	2dd\	.	.
2C\yy	.	.	2C/	.	.	2c\	.	.	2g\	.	2ee\	.	.
=14	=14	=14	=14	=14	=14	=14	=14	=14	=14	=14	=14	=14	=14
2F\yy	.	.	2F\	.	.	2d\	.	.	4a\	.	4ff\	.	.
.	.	.	.	.	.	.	.	.	4f\	.	4dd\	.	.
2G\yy	.	.	1G	.	.	1G	.	.	2e\	.	2cc\	.	.
2GG/yy	.	.	.	.	.	.	.	.	2d\	.	2b\	.	.
=15	=15	=15	=15	=15	=15	=15	=15	=15	=15	=15	=15	=15	=15
1Cyy	-cem	.	1C	-cem	.	1G	-cem	.	1e	-cem	1cc	-cem	.
2ryy	.	.	2r	.	.	2r	.	.	2r	.	2r	.	.
=16	=16	=16	=16	=16	=16	=16	=16	=16	=16	=16	=16	=16	=16
!	!	!LO:DY:a	!	!	!LO:DY:a:t=p&colon;	!	!	!LO:DY:a:t=p&colon;:rj	!	!	!	!	!LO:DY:a:t=p&colon;:rj
2.G\yy	Do-	pyy	2.G\	Do-	p	2.B\	Do-	p	2.g\	Do-	2.dd\	Do-	p
4G\yy	-na	.	4G\	-na	.	4B\	-na	.	4g\	-na	4dd\	-na	.
4G\yy	no-	.	4G\	no-	.	4B\	no-	.	4g\	no-	4dd\	no-	.
4G\yy	-bis	.	4G\	-bis	.	4B\	-bis	.	4g\	-bis	4dd\	-bis	.
=17	=17	=17	=17	=17	=17	=17	=17	=17	=17	=17	=17	=17	=17
4G\yy	pa-	.	4G\	pa-	.	4B\	pa-	.	4g\	pa-	2dd\	pa-	.
4A\yy	.	.	4A\	.	.	4c\	.	.	4f#X\	.	.	.	.
1Ayy	-cem	.	1A	-cem	.	1c	-cem	.	1f#	-cem	1dd	-cem	.
=18	=18	=18	=18	=18	=18	=18	=18	=18	=18	=18	=18	=18	=18
4B\yy	Do-	.	4B\	Do-	.	4G/	do-	.	2.fn\	do-	2.dd\	Do-	.
4G\yy	-na	.	4G\	-na	.	4B/	.	.	.	.	.	.	.
4B\yy	no-	.	4B\	no-	.	4G/	-na	.	.	.	.	.	.
4d\yy	-bis	.	4d\	-bis	.	4B/	.	.	4f\	-na	4dd\	-na	.
4B\yy	pa-	.	4B\	pa-	.	4G/	no-	.	4f\	no-	4dd\	no-	.
4G\yy	.	.	4G\	.	.	4B/	-bis	.	4f\	-bis	4dd\	-bis	.
!	!	!	!LO:LB:g=original	!	!	!LO:LB:g=original	!	!	!	!	!LO:LB:g=original	!	!
=19	=19	=19	=19	=19	=19	=19	=19	=19	=19	=19	=19	=19	=19
2c\yy	.	.	2c\	.	.	2G/	pa-	.	4f\	pa-	4dd\	pa-	.
.	.	.	.	.	.	.	.	.	4e\	.	4cc\	.	.
2G\yy	.	.	2G\	.	.	1G	-cem	.	1e	-cem	1cc	-cem	.
2C/yy	-cem	.	2C/	-cem	.	.	.	.	.	.	.	.	.
!	!	!	!	!	!	!	!	!	!LO:LB:g=original	!	!	!	!
=20	=20	=20	=20	=20	=20	=20	=20	=20	=20	=20	=20	=20	=20
!	!	!LO:DY:a	!	!	!LO:DY:a:t=f.:rj	!	!	!LO:DY:a:rj	!	!	!	!	!
2.G\yy	Do-	fyy	2.G\	Do-	f	2.B\	Do-	f	2.f\	Do-	2.dd\	Do-	.
4G\yy	-na	.	4G\	-na	.	4B\	-na	.	4f\	-na	4dd\	-na	.
4c\yy	no-	.	4c\	no-	.	4G/	no-	.	4e\	no-	4cc\	no-	.
4c\yy	-bis	.	4c\	-bis	.	4G/	-bis	.	4e\	-bis	4cc\	-bis	.
=21	=21	=21	=21	=21	=21	=21	=21	=21	=21	=21	=21	=21	=21
1.Gyy	pa-	.	1.G	pa-	.	2d\	pa-	.	2d\	pa-	2b\	pa-	.
.	.	.	.	.	.	2c\	.	.	2e\	.	2cc\	.	.
.	.	.	.	.	.	2B\	.	.	2f\	.	2dd\	.	.
=22	=22	=22	=22	=22	=22	=22	=22	=22	=22	=22	=22	=22	=22
2E\yy	.	.	2E\	.	.	2G\	.	.	2e\	.	2cc\	.	.
2D\yy	.	.	2D\	.	.	2B\	.	.	2f\	.	2dd\	.	.
2C/yy	.	.	2C\	.	.	2c\	.	.	2g\	.	2ee\	.	.
=23	=23	=23	=23	=23	=23	=23	=23	=23	=23	=23	=23	=23	=23
2F\yy	.	.	2F\	.	.	2d\	.	.	4a\	.	4ff\	.	.
.	.	.	.	.	.	.	.	.	4f\	.	4dd\	.	.
2G\yy	.	.	1G	.	.	1G	.	.	2e\	.	2cc\	.	.
2GG/yy	.	.	.	.	.	.	.	.	2d\	.	2b\	.	.
=24	=24	=24	=24	=24	=24	=24	=24	=24	=24	=24	=24	=24	=24
1Cyy	-cem	.	2C/	-cem	.	2G/	-cem	.	2e\	-cem	2cc\	-cem	.
.	.	.	2C/	Do-	.	2G/	do-	.	2e\	Do-	2cc\	Do-	.
2C/yy	na	.	2C/	-na	.	2G/	-na	.	2e\	-na	2cc\	-na	.
=25	=25	=25	=25	=25	=25	=25	=25	=25	=25	=25	=25	=25	=25
1.Cyy	pa-	.	1.C	pa-	.	1.A	pa-	.	1.f	pa-	1.cc	pa-	.
=26	=26	=26	=26	=26	=26	=26	=26	=26	=26	=26	=26	=26	=26
1.Cyy	-cem	.	1.C	-cem	.	1.G	-cem	.	1.e	-cem	1.cc	-cem	.
==	==	==	==;;	==	==	==;;	==	==	==;;	==	==;;	==	==
*-	*-	*-	*-	*-	*-	*-	*-	*-	*-	*-	*-	*-	*-
!!!system-decoration: [(s1,s2,s3,s4)]s5
!!!ENC: Berenika Jozajtis
!!!END: 2024-02-23
!!!EED: Marta Chmielewska
!!!EEV: 2024-04-29
